X: 1
T:The Keel Row  "Jim Monroe's Dance"
M:C
L:1/8
Q:80
C:
S:Strathspey
K:HP
|: e|
{gfg}f2{Gdc}d3/2f/2{gf}g2{ef}e3/2f/2|
{fg}f2{Gdc}d3/2f/2{gef}e3/2c/2{g}A3/2f/2|
{fg}f2{Gdc}d3/2f/2{gf}g2{ef}e3/2f/2|  !
{fg}f3/2d/2{gef}e3/2c/2{Gdc}d2{gdc}d:| |:
{g}c/2e3/2{A}e/2a3/2{fg}f2{gef}e3/2d/2|
{gcd}c2{g}A3/2{d}c/2{gBd}B3/2A/2{g}G3/2d/2|  !
{g}c/2e3/2{A}e/2a3/2{fg}f2{gef}e3/2d/2|
{g}c/2{d}A3/2{g}B/2{d}G3/2{g}A2{GAG}A2:|
